!!!COM:	Anonymous
!!!OPR:	Missa [Bergerette savoysienne]
!!!ONM:	5
!!!OTL:	Agnus Dei
!!!AGN:	Mass; Agnus Dei
!!!SCT:	Ano1001e
!!!SCA:	Ano1001e
!!!SMS:	Jena 32
!!!folio-OPR:	250r-264r
!!!folio:	
!!!voices:	4
**kern	**kern	**kern	**kern
*staff4	*staff3	*staff2	*staff1
*Ivox	*Ivox	*Ivox	*Ivox
*I"Bassus	*I"Tenor	*I"Altus	*I"Superius
*I'B	*I'T	*I'A	*I'S
*>[A,B]	*>[A,B]	*>[A,B]	*>[A,B]
*>A	*>A	*>A	*>A
*clefF4	*clefGv2	*clefGv2	*clefG2
*k[]	*k[]	*k[]	*k[]
*M2/1	*M2/1	*M2/1	*M2/1
*met(C|)	*met(C|)	*met(C|)	*met(C|)
!!section: Agnus Dei I
!!!OMD: Agnus Dei I
=1-	=1-	=1-	=1-
0r	0c	1.g	0r
.	.	4f	.
.	.	4e	.
=2	=2	=2	=2
0r	1d	1f	0r
.	1e	1e	.
=3	=3	=3	=3
0r	2e	0r	0cc
.	2.f	.	.
.	4e	.	.
.	4d	.	.
.	4c	.	.
=4	=4	=4	=4
0r	1B	1r	1dd
.	1c	1g	1ee
=5	=5	=5	=5
0r	4A	1a	1ee
.	4B	.	.
.	4c	.	.
.	4d	.	.
.	2e	2g	2ee
.	2A	[2cc	[2ee
=6	=6	=6	=6
0r	1c	4cc]	4ee]
.	.	4b	4dd
.	.	4a	1cc
.	.	4g	.
.	1F	1a	.
.	.	.	4b
.	.	.	4a
=7	=7	=7	=7
0r	2.G	1.g	1b
.	4A	.	.
.	4B	.	1r
.	4c	.	.
.	[2d	2f	.
=8	=8	=8	=8
0r	4d]	1a	1ff
.	4c	.	.
.	4A	.	.
.	4B	.	.
.	2c	1g	2ee
.	2G	.	[2dd
=9	=9	=9	=9
0r	1d	1f	4dd]
.	.	.	4cc
.	.	.	4b
.	.	.	4a
.	2c	1g	2ee
.	2B	.	[2dd
=10	=10	=10	=10
0r	2c	2e	4dd]
.	.	.	4cc
.	2A	2f	1cc
.	1G	1d	.
.	.	.	2b
=11	=11	=11	=11
0C	2r	1c	0cc
.	1g	.	.
.	.	1e	.
.	4f	.	.
.	4e	.	.
=12	=12	=12	=12
1D	1f	1d	1a
1E	1e	2B	1g
.	.	[2c	.
=13	=13	=13	=13
1E	2e	2c]	2g
.	1e	4B	1g
.	.	4A	.
2E	.	1B	.
[2E	4d	.	4f
.	4c	.	4e
=14	=14	=14	=14
4E]	2B	1G	1g
4D	.	.	.
1C	2c	.	.
.	1G	1c	1e
4BB	.	.	.
4AA	.	.	.
=15	=15	=15	=15
0BB	1d	2B	2d
.	.	1B	1dd
.	2r	.	.
.	2d	4A	4cc
.	.	4G	4b
=16	=16	=16	=16
0r	1e	1c	1cc
.	1f	1d	1a
=17	=17	=17	=17
0r	2e	1e	2g
.	1g	.	4a
.	.	.	4b
.	.	1c	1cc
.	4f	.	.
.	4e	.	.
=18	=18	=18	=18
0r	1d	1f	1dd
.	2c	2.g	1ee
.	2e	.	.
.	.	4e	.
=19	=19	=19	=19
0r	2d	2f	2.a
.	4c	2d	.
.	4B	.	4b
.	2A	2.e	2cc
.	2G	.	[2b
.	.	4d	.
=20	=20	=20	=20
0r	1F	2c	4b]
.	.	.	4a
.	.	2d	1a
.	1E	1B	.
.	.	.	2g#i
=21	=21	=21	=21
1.F	2F	2.A	2a
.	1A	.	1cc
.	.	4B	.
.	.	2c	.
2F	4G	[2d	4b
.	4F	.	4a
=22	=22	=22	=22
1E	1G	2d]	1g
.	.	2c#i	.
[1D	[1A	1d	1f
=23	=23	=23	=23
2D]	2A]	1f	1d
4C	2B	.	.
4D	.	.	.
[1C	1c	1e	2r
.	.	.	[2e
=24	=24	=24	=24
2C]	0G	1c	2e]
4BB	.	.	4d
4C	.	.	4c
2BB	.	1r	1d
4AA	.	.	.
4BB	.	.	.
=25	=25	=25	=25
[0C	1r	[0c	1e
.	1G	.	2c
.	.	.	2g
=26	=26	=26	=26
0C]	1A	0c]	2.e
.	.	.	4f
.	1G	.	[1g
=27	=27	=27	=27
0r	1c	1e	2g]
.	.	.	2a
.	2B	2d	2b
.	[2c	[2e	[2g
=28	=28	=28	=28
0r	4c]	2e]	2g]
.	4B	.	.
.	2A	4d	1cc
.	.	4c	.
.	1G	1d	.
.	.	.	2b
=29	=29	=29	=29
0Cl	0gl	0cl	0ccl
!!LO:LB:i:g=z
=30||	=30||	=30||	=30||
*>B	*>B	*>B	*>B
*clefF4	*clefGv2	*clefGv2	*clefG2
*k[]	*k[]	*k[]	*k[]
*M2/1	*M2/1	*M2/1	*M2/1
*met(C|)	*met(C|)	*met(C|)	*met(C|)
!!section: Agnus Dei II
!!!OMD: Agnus Dei II
1E	0e	0g	0gg
1E	.	.	.
=31	=31	=31	=31
1D	1f	1a	1ff
[1G	1g	1b	1dd
=32	=32	=32	=32
1G]	1e	1g	1ee
1F	1f	1a	2cc
.	.	.	[2dd
=33	=33	=33	=33
0G	0d	0g	4dd]
.	.	.	4cc
.	.	.	4b
.	.	.	4a
.	.	.	1b
=34	=34	=34	=34
0r	0c	1r	0cc
.	.	1g	.
=35	=35	=35	=35
1.F	1r	2f	1r
.	.	2.a	.
.	1c	.	1cc
.	.	4g	.
2F	.	4f	.
.	.	4e	.
=36	=36	=36	=36
1F	1d	1f	2a
.	.	.	2dd
[1E	1e	1g	2b
.	.	.	[2cc
=37	=37	=37	=37
2E]	1c	1e	2cc]
2D	.	.	1a
[1D	1d	1f	.
.	.	.	[2b
=38	=38	=38	=38
1D]	1B	1d	2b]
.	.	.	1g
1C	1c	1e	.
.	.	.	[2a
=39	=39	=39	=39
0D	0A	0d	4a]
.	.	.	4g
.	.	.	4f#i
.	.	.	4e
.	.	.	1f#i
=40	=40	=40	=40
0r	1G	0r	2r
.	.	.	2g
.	2r	.	2a
.	2G	.	2b
=41	=41	=41	=41
0r	1.A	0r	1.cc
.	2G	.	2b
=42	=42	=42	=42
0r	1F	0r	2a
.	.	.	4g
.	.	.	4f
.	1E	.	4g
.	.	.	4f
.	.	.	4e
.	.	.	4d
=43	=43	=43	=43
0r	1F	0r	2c
.	.	.	1f
.	1G	.	.
.	.	.	2e
=44	=44	=44	=44
1r	0r	2r	1f
.	.	2d	.
2r	.	2e	2g
2D	.	2f	2a
=45	=45	=45	=45
1.E	0r	1.g	2g
.	.	.	1e
2D	.	2f	2f
=46	=46	=46	=46
1C	0r	2e	1g
.	.	4d	.
.	.	4c	.
1BB	.	4d	2r
.	.	4c	.
.	.	4B	[2g
.	.	4A	.
=47	=47	=47	=47
1C	1r	2G	2g]
.	.	1c	4f
.	.	.	4e
1D	2r	.	1f
.	2d	2B	.
=48	=48	=48	=48
0r	1.e	0r	2e
.	.	.	2b
.	.	.	2cc
.	2d	.	2dd
=49	=49	=49	=49
0r	1c	0r	2ee
.	.	.	4dd
.	.	.	4cc
.	1B	.	4dd
.	.	.	4cc
.	.	.	4b
.	.	.	4a
=50	=50	=50	=50
1r	1c	0r	2g
.	.	.	1cc
2r	1d	.	.
2G	.	.	2b
=51	=51	=51	=51
1.A	0r	2r	1cc
.	.	2e	.
.	.	2f	1r
2G	.	2g	.
=52	=52	=52	=52
1F	0r	2a	0r
.	.	4g	.
.	.	4f	.
1E	.	4g	.
.	.	4f	.
.	.	4e	.
.	.	4d	.
=53	=53	=53	=53
1F	0r	2c	0r
.	.	1f	.
1G	.	.	.
.	.	2e	.
=54	=54	=54	=54
0r	1.d	0f	2r
.	.	.	2.a
.	.	.	4b
.	2c	.	2cc
=55	=55	=55	=55
0G	2B	[0d	2.dd
.	2A	.	.
.	.	.	4cc
.	1G	.	2b
.	.	.	4a
.	.	.	4g
=56	=56	=56	=56
0D	0A	0d]	2f
.	.	.	1g
.	.	.	2f#i
=57	=57	=57	=57
1E	0G	0r	0g
1C	.	.	.
=58	=58	=58	=58
0r	1.g	0b-	2r
.	.	.	2.dd
.	.	.	4ee
.	2f	.	2ff
=59	=59	=59	=59
0c	2e	[0g	2.gg
.	2d	.	.
.	.	.	4ff
.	1c	.	2ee
.	.	.	4dd
.	.	.	4cc
=60	=60	=60	=60
0G	0d	0g]	2b
.	.	.	1cc
.	.	.	2b
=61	=61	=61	=61
1A	0c	0r	0cc
1F	.	.	.
=62	=62	=62	=62
2r	0r	2.g	0r
2.G	.	.	.
.	.	4f	.
.	.	4e	.
4F	.	4d	.
4E	.	[2e	.
4D	.	.	.
=63	=63	=63	=63
2C	0r	4e]	0r
.	.	4d	.
2E	.	1c	.
2F	.	.	.
2G	.	2B	.
=64	=64	=64	=64
1C	2r	1c	2.gg
.	2.g	.	.
.	.	.	4ff
1r	.	1r	4ee
.	4f	.	4dd
.	4e	.	[2ee
.	4d	.	.
=65	=65	=65	=65
0r	2c	0r	4ee]
.	.	.	4dd
.	2e	.	1cc
.	2f	.	.
.	2g	.	2b
=66	=66	=66	=66
1.C	1c	2.g	1cc
.	.	4f	.
.	1r	4e	1r
.	.	4d	.
[2C	.	[2e	.
=67	=67	=67	=67
4C]	0r	4e]	0r
4D	.	4d	.
2E	.	1c	.
2F	.	.	.
2G	.	2B	.
=68	=68	=68	=68
1.C	2r	1c	2.gg
.	2.g	.	.
.	.	.	4ff
.	.	2r	4ee
.	4f	.	4dd
[2c	4e	[2c	[2ee
.	4d	.	.
=69	=69	=69	=69
4c]	1c	4c]	4ee]
4B	.	4d	4dd
2A	.	4e	1cc
.	.	4f	.
1G	1d	2.g	.
.	.	.	2b
.	.	4f	.
=70	=70	=70	=70
[0Cl	[0cl	4e	[0ccl
.	.	4d	.
.	.	2.e	.
.	.	4d	.
.	.	4c	.
.	.	4B	.
=71	=71	=71	=71
0C_	0c_	1A	0cc_
.	.	1G	.
=72	=72	=72	=72
0C]	0c]	0gl	0cc]
==	==	==	==
*-	*-	*-	*-
!!!RDF**kern: l=long note in original notation
!!!RDF**kern: i=editorial accidental
!!!ENC:	Jesse Rodin 8/14/2013
!!!END:	2013/08/14/
!!!EED:	Jesse Rodin
!!!EEV:	2013/08/14/
!!!ONB:	Translated from MusicXML and edited on 2013/08/14/ by Craig Sapp
!!muse2ps: T^@{OPR}^u^@{ONM}{. }@{OTL}^C^@{COM}\n@{SMS}, @{folio-OPR}^i2I150v85,85,85,150Q16
